X:166
M:4/4
L:1/4
K:C
z2 B2 | c B A B | (d3/2 e/ d) c | B2 d2 | c B c A | (G D F G) | E4 | z2 B2 | c B A B | (d3/2 e/ d) c | B2 d2 | c B c A | (G D F G) | E4 | G2 F E | D E C D | E2 B2 | c A G A | c2 B2 | e2 d B | d A G F | E2 G2 | A G c d | B2 A2 | z !sintro!c B A | G D (F G) | E4 !eintro!|]
